assets/num_schnicks.svg

<?xml version="1.0" encoding="UTF-8" standalone="no"?><!DOCTYPE svg PUBLIC "-//W3C//DTD SVG 1.1//EN" "http://www.w3.org/Graphics/SVG/1.1/DTD/svg11.dtd"><svg width="100%" height="100%" viewBox="0 0 32 32" version="1.1" xmlns="http://www.w3.org/2000/svg" xmlns:xlink="http://www.w3.org/1999/xlink" xml:space="preserve" xmlns:serif="http://www.serif.com/" style="fill-rule:evenodd;clip-rule:evenodd;stroke-linejoin:round;stroke-miterlimit:1.41421;">
<metadata>
<rdf:RDF xmlns:cc="http://web.resource.org/cc/"
         xmlns:rdf="http://www.w3.org/1999/02/22-rdf-syntax-ns#"
         xmlns:dc = "http://purl.org/dc/elements/1.1/"
         >

     <rdf:Description rdf:about="">
       <dc:title>Mutant Standard emoji 2024.06</dc:title>
     </rdf:Description>

    <cc:work rdf:about="">
        <cc:license rdf:resource="http://creativecommons.org/licenses/by-nc-sa/4.0/"/>
        <cc:attributionName>Caius Nocturne</cc:attributionName>
        <cc:attributionURL>http://mutant.tech/</cc:attributionURL>
    </cc:work>

</rdf:RDF>
</metadata>
<rect id="hash_char" x="0" y="0" width="32" height="32" style="fill:none;"/><clipPath id="_clip1"><rect x="0" y="0" width="32" height="32"/></clipPath><g clip-path="url(#_clip1)"><g id="outline"><path d="M23.005,9.235l3.659,0l0,5.466l-4.371,0l-0.273,2.145l3.589,0l0,5.467l-4.296,0l-1.017,7.687l-3.919,0l0,-2l0.752,-5.687l-3.955,0l-1.017,7.687l-3.882,0l0,-2l0.753,-5.687l-3.692,0l0,-5.467l4.409,0l0.292,-2.145l-3.646,0l0,-5.466l4.371,0l0.942,-7.235l3.882,0l0,2l-0.682,5.235l3.96,0l0.942,-7.235l3.881,0l0,2l-0.682,5.235Zm-4.866,5.466l-3.948,0l-0.292,2.145l3.947,0l0.293,-2.145Z" style="fill:none;stroke:#000;stroke-width:4px;"/><rect x="13" y="0" width="9" height="5"/><rect x="10" y="27" width="9" height="5"/></g><g id="emoji"><path d="M22.293,14.701l-0.528,4.145l3.844,1.467l0,2l-4.296,0l-1.017,7.687l-3.919,0l0,-2l1.017,-5.687l-4.22,0l-1.017,7.687l-3.882,0l0,-2l1.018,-5.687l-3.957,0l0,-2l4.409,-1.467l0.565,-4.145l-3.919,0l0,-2l4.371,-1.466l0.942,-7.235l3.882,-2l0,2l-0.943,7.235l4.221,0l0.942,-7.235l3.881,-2l0,2l-0.942,7.235l3.919,1.466l0,2l-4.371,0Zm-3.881,0l-4.221,0l-0.565,4.145l4.22,0l0.566,-4.145Z" style="fill:#878585;fill-rule:nonzero;"/><path d="M22.293,12.701l-0.528,4.145l3.844,0l0,3.467l-4.296,0l-1.017,7.687l-3.919,0l1.017,-7.687l-4.22,0l-1.017,7.687l-3.882,0l1.018,-7.687l-3.957,0l0,-3.467l4.409,0l0.565,-4.145l-3.919,0l0,-3.466l4.371,0l0.942,-7.235l3.882,0l-0.943,7.235l4.221,0l0.942,-7.235l3.881,0l-0.942,7.235l3.919,0l0,3.466l-4.371,0Zm-3.881,0l-4.221,0l-0.565,4.145l4.22,0l0.566,-4.145Z" style="fill:#faf5f5;fill-rule:nonzero;"/></g></g></svg>

<?xml version="1.0" encoding="UTF-8" standalone="no"?>
<svg
   width="100%"
   height="100%"
   viewBox="0 0 32 32"
   version="1.1"
   xml:space="preserve"
   style="fill-rule:evenodd;clip-rule:evenodd;stroke-linejoin:round;stroke-miterlimit:1.41421;"
   id="svg4"
   sodipodi:docname="num_schnicks.svg"
   inkscape:version="1.4.2 (f4327f4, 2025-05-13)"
   xmlns:inkscape="http://www.inkscape.org/namespaces/inkscape"
   xmlns:sodipodi="http://sodipodi.sourceforge.net/DTD/sodipodi-0.dtd"
   xmlns="http://www.w3.org/2000/svg"
   xmlns:svg="http://www.w3.org/2000/svg"
   xmlns:rdf="http://www.w3.org/1999/02/22-rdf-syntax-ns#"
   xmlns:cc="http://creativecommons.org/ns#"
   xmlns:dc="http://purl.org/dc/elements/1.1/"><defs
   id="defs4" /><sodipodi:namedview
   id="namedview4"
   pagecolor="#ffffff"
   bordercolor="#000000"
   borderopacity="0.25"
   inkscape:showpageshadow="2"
   inkscape:pageopacity="0.0"
   inkscape:pagecheckerboard="0"
   inkscape:deskcolor="#d1d1d1"
   inkscape:zoom="8.5405241"
   inkscape:cx="-4.7420977"
   inkscape:cy="23.476311"
   inkscape:window-width="1920"
   inkscape:window-height="991"
   inkscape:window-x="-9"
   inkscape:window-y="-9"
   inkscape:window-maximized="1"
   inkscape:current-layer="svg4" />
<metadata
   id="metadata1">
<rdf:RDF>

     <rdf:Description
   rdf:about="">
       <dc:title>Mutant Standard emoji 2024.06</dc:title>
     </rdf:Description>

    <cc:work
   rdf:about="">
        <cc:license
   rdf:resource="http://creativecommons.org/licenses/by-nc-sa/4.0/" />
        <cc:attributionName>Caius Nocturne</cc:attributionName>
        <cc:attributionURL>http://mutant.tech/</cc:attributionURL>
    </cc:work>

</rdf:RDF>
</metadata>
<rect
   id="hash_char"
   x="0"
   y="0"
   width="32"
   height="32"
   style="display:none;fill:none" /><clipPath
   id="_clip1"><rect
     x="0"
     y="0"
     width="32"
     height="32"
     id="rect1" /></clipPath><g
   clip-path="url(#_clip1)"
   id="g4"
   transform="matrix(1.0027043,0,0,0.96875,-0.0432688,0.5)"><g
     id="outline"><path
       d="m 23.005,9.235 h 3.659 v 5.466 h -4.371 l -0.273,2.145 h 3.589 v 5.467 H 21.313 L 20.296,30 h -3.919 v -2 l 0.752,-5.687 H 13.174 L 12.157,30 H 8.275 V 28 L 9.028,22.313 H 5.336 v -5.467 h 4.409 l 0.292,-2.145 H 6.391 V 9.235 h 4.371 L 11.704,2 h 3.882 v 2 l -0.682,5.235 h 3.96 L 19.806,2 h 3.881 v 2 z m -4.866,5.466 h -3.948 l -0.292,2.145 h 3.947 z"
       style="fill:none;stroke:#000000;stroke-width:4px"
       id="path1" /><rect
       x="13"
       y="0"
       width="9"
       height="5"
       id="rect2" /><rect
       x="10"
       y="27"
       width="9"
       height="5"
       id="rect3" /></g><g
     id="emoji"><path
       d="m 22.293,14.701 -0.528,4.145 3.844,1.467 v 2 H 21.313 L 20.296,30 h -3.919 v -2 l 1.017,-5.687 h -4.22 L 12.157,30 H 8.275 V 28 L 9.293,22.313 H 5.336 v -2 L 9.745,18.846 10.31,14.701 H 6.391 v -2 L 10.762,11.235 11.704,4 15.586,2 v 2 l -0.943,7.235 h 4.221 L 19.806,4 23.687,2 v 2 l -0.942,7.235 3.919,1.466 v 2 z m -3.881,0 h -4.221 l -0.565,4.145 h 4.22 z"
       style="fill:#878585;fill-rule:nonzero"
       id="path3" /><path
       d="m 22.293,12.701 -0.528,4.145 h 3.844 v 3.467 H 21.313 L 20.296,28 h -3.919 l 1.017,-7.687 h -4.22 L 12.157,28 H 8.275 L 9.293,20.313 H 5.336 V 16.846 H 9.745 L 10.31,12.701 H 6.391 V 9.235 h 4.371 L 11.704,2 h 3.882 l -0.943,7.235 h 4.221 L 19.806,2 h 3.881 l -0.942,7.235 h 3.919 v 3.466 z m -3.881,0 h -4.221 l -0.565,4.145 h 4.22 z"
       style="fill:#faf5f5;fill-rule:nonzero"
       id="path4" /></g></g></svg>
